src/img/icons/adiar.svg

<svg width="24" height="24" viewBox="0 0 24 24" fill="none" xmlns="http://www.w3.org/2000/svg">
<g clip-path="url(#clip0_337_3377)">
<path fill-rule="evenodd" clip-rule="evenodd" d="M6.94779 19.1389C7.15886 19.104 7.38177 19.1259 7.59388 19.2143C10.6635 20.494 13.255 20.4022 15.2613 19.4995C18.1721 18.19 19.8247 15.2217 19.8247 12.6798C19.8247 8.43294 16.4244 4.98498 12.2364 4.98498C8.04828 4.98498 4.64816 8.43294 4.64816 12.6798C4.64816 13.3493 4.11219 13.8929 3.45193 13.8929C2.79168 13.8929 2.25571 13.3493 2.25571 12.6798C2.25571 7.09388 6.7279 2.55891 12.2364 2.55891C17.7449 2.55891 22.2171 7.09388 22.2171 12.6798C22.2171 15.3058 20.9078 18.294 18.4979 20.299L19.4419 22.0684C19.756 22.6572 19.5396 23.394 18.9589 23.7126C18.3781 24.0311 17.6516 23.8117 17.3375 23.2228L16.474 21.6041C16.3939 21.6427 16.3132 21.6805 16.2316 21.7171C13.8825 22.7739 10.8866 23.0229 7.35937 21.7234L6.52622 23.285C6.21211 23.8739 5.4856 24.0933 4.90484 23.7748C4.32419 23.4563 4.10778 22.7196 4.42189 22.1307L5.68844 19.7566C5.93966 19.2858 6.45463 19.051 6.94779 19.1389ZM11.3019 13.6533C11.2167 13.5058 11.1672 13.3343 11.166 13.1513L11.1245 7.58582C11.1204 7.02796 11.5636 6.5715 12.1138 6.56737C12.664 6.56312 13.114 7.01269 13.1182 7.57055L13.1526 12.197L15.666 12.1666C16.2161 12.1624 16.6661 12.6119 16.6703 13.1698C16.6745 13.7276 16.2312 14.184 15.681 14.1882L12.21 14.2303C11.8102 14.2334 11.4633 13.9968 11.3019 13.6533ZM2.64002 5.48794C2.27659 6.04683 1.53395 6.20128 0.982894 5.83267C0.431717 5.46406 0.27936 4.7111 0.642904 4.15221C1.80699 2.3622 3.25664 1.0592 5.1166 0.138127C5.70979 -0.15573 6.42666 0.0941457 6.71641 0.695753C7.00615 1.29736 6.75969 2.02425 6.16651 2.31811C4.69922 3.04477 3.55846 4.07585 2.64002 5.48794ZM23.7704 4.13717C24.1339 4.69606 23.9816 5.44913 23.4304 5.81774C22.8794 6.18636 22.1367 6.03179 21.7733 5.4729C20.8548 4.06092 19.7141 3.02984 18.2468 2.30318C17.6536 2.00932 17.4072 1.28243 17.6969 0.680825C17.9866 0.0792175 18.7035 -0.170658 19.2967 0.123198C21.1567 1.04427 22.6063 2.34727 23.7704 4.13717Z" fill="#272727"/>
</g>
<defs>
<clipPath id="clip0_337_3377">
<rect width="24" height="24" fill="white"/>
</clipPath>
</defs>
</svg>

<svg xmlns="http://www.w3.org/2000/svg" width="24" height="24" fill="none" viewBox="0 0 24 24"><g clip-path="url(#clip0_337_3377)"><path fill="#272727" fill-rule="evenodd" d="M6.948 19.139c.21-.035.434-.013.646.075 3.07 1.28 5.661 1.188 7.667.286 2.911-1.31 4.564-4.278 4.564-6.82 0-4.247-3.4-7.695-7.589-7.695-4.188 0-7.588 3.448-7.588 7.695 0 .67-.536 1.213-1.196 1.213s-1.196-.544-1.196-1.213c0-5.586 4.472-10.121 9.98-10.121 5.509 0 9.981 4.535 9.981 10.12 0 2.627-1.31 5.615-3.72 7.62l.945 1.77a1.223 1.223 0 0 1-.483 1.644 1.19 1.19 0 0 1-1.622-.49l-.863-1.619q-.12.058-.242.113c-2.35 1.057-5.345 1.306-8.873.006l-.833 1.562a1.19 1.19 0 0 1-1.621.49 1.22 1.22 0 0 1-.483-1.644l1.266-2.374a1.19 1.19 0 0 1 1.26-.618m4.354-5.486a1 1 0 0 1-.136-.502l-.042-5.565a1.005 1.005 0 0 1 .99-1.019c.55-.004 1 .446 1.004 1.004l.035 4.626 2.513-.03c.55-.005 1 .445 1.004 1.003a1.005 1.005 0 0 1-.989 1.018l-3.471.042a1 1 0 0 1-.908-.577M2.64 5.488a1.187 1.187 0 0 1-1.657.345 1.224 1.224 0 0 1-.34-1.68C1.807 2.362 3.257 1.058 5.117.137a1.19 1.19 0 0 1 1.6.558c.29.601.043 1.328-.55 1.622-1.468.727-2.609 1.758-3.527 3.17m21.13-1.35a1.224 1.224 0 0 1-.34 1.68 1.187 1.187 0 0 1-1.657-.345c-.918-1.412-2.059-2.443-3.526-3.17a1.22 1.22 0 0 1-.55-1.622 1.19 1.19 0 0 1 1.6-.558c1.86.921 3.31 2.224 4.473 4.014" clip-rule="evenodd"/></g><defs><clipPath id="clip0_337_3377"><path fill="#fff" d="M0 0h24v24H0z"/></clipPath></defs></svg>
